X: 1
T: Katherine Brennan's Favorite
M: 4/4
L: 1/8
R: hornpipe
K: Gmaj
|: (3Bcd | 
g>ed>B G2 A>B | (3cBA B>G A>G (3EFG | D>G (3Bcd g>dB>g | (3efg a>g f>d (3def | 
g>ed>B G>D (3BAG | (3cBA B>G A>GE>G | (3cdc B>G A>GE>G | D>G (3GGF G2 :|
|: (3def | 
g>fg>a (3bag a>f | g>fe>d (3BcB A>G | (3EFG A>B c>BA>G | E>AA>B c>de>f | 
g2 g>a b>g (3agf | g2 (3fed B2 B>d | (3cBA (3BAG A>G (3EFG | D>GG>F G2 :|
